!!!OTL: SAUSE KINGCHE SAUSE
!!!ARE: Europa, Mitteleuropa, Deutschland, Darmstadt, Hopfgarten
!!!SCT: K0056
!!!YEM: Copyright 1995, estate of Helmut Schaffrath.
**kern
*ICvox
*Ivox
*M2/4
*k[f#]
*G:
=1
{8.dd
16cc
8b
8a
=2
4g
8d
8r}
=3
{8.dd
16cc
8b
8a
=4
4g
8d
8r}
=5
{8g
8g
8a
8dd
=6
8b
8b
4a}
=7
{8g
8g
8a
8dd
=8
8b
8b
4a}
=9
{8.dd
16cc
8b
8a
=10
4g
8d
8r}
==
!!!AGN: Kinder -, Wiegen - Lied
!!!ONB: ESAC (Essen Associative Code) Database: KINDER
!!!AMT: simple duple
!!!AIN: vox
!!!EED: Helmut Schaffrath
!!!EEV: 1.0
*-
